public/vollie.svg

<svg fill="none" xmlns="http://www.w3.org/2000/svg" viewBox="0 0 50 50">
    <style>
        :root {
            --dur: 2s;
        }

        #line {
            animation: anim var(--dur) ease-in-out alternate infinite;
        }

        @keyframes anim {
            from {
                transform: translateX(-35%);
            }

            to {
                transform: translateX(95%);
            }
        }

        #wrap {
            transform-origin: 50% 50%;
            animation: rot var(--dur) linear infinite;
        }

        @keyframes rot {
            to {
                transform: rotate(360deg);
            }
        }
    </style>
    <mask id="a" style="mask-type:alpha" maskUnits="userSpaceOnUse" x="0" y="0" width="50" height="50">
        <path d="M25 50c13.8071 0 25-11.1929 25-25S38.8071 0 25 0 0 11.1929 0 25s11.1929 25 25 25Z" fill="#fff" />
    </mask>
    <g mask="url(#a)">
        <path d="M25 50c13.8071 0 25-11.1929 25-25S38.8071 0 25 0 0 11.1929 0 25s11.1929 25 25 25Z" fill="url(#b)" />
        <mask id="c" style="mask-type:alpha" maskUnits="userSpaceOnUse" x="0" y="0" width="50" height="50">
            <g id="wrap">
                <path id="line"
                    d="M-20.0005 22.5745C-20.0005 9.64684-13.2847 5-5.00049 5c8.2842 0 15 4.64684 15 17.5745m29.99999 0C39.9995 9.64684 46.7153 5 54.9995 5s15 4.64684 15 17.5745m-30-.1491c0 12.9278-6.7158 17.5746-15 17.5746S9.99951 35.3532 9.99951 22.4254m-30.00001 0c0 12.9278-6.7158 17.5746-15 17.5746-8.2843 0-15-4.6468-15-17.5746"
                    stroke="#fff" stroke-width="4" />
            </g>
        </mask>
        <g mask="url(#c)">
            <path fill="url(#d)" d="M0 0h50v50H0z" />
        </g>
        <path transform="matrix(1 0 0 -1 0 50)" fill="#111" d="M0 0h50v50H0z" style="mix-blend-mode:overlay"
            opacity=".3" />
    </g>
    <defs>
        <linearGradient id="b" x1="24.9966" y1="1.1375" x2="24.9966" y2="46" gradientUnits="userSpaceOnUse">
            <stop stop-color="#74FF66" />
            <stop offset="1" stop-color="#14C700" />
        </linearGradient>
        <linearGradient id="d" x1="25" y1="-8.33333" x2="25" y2="58.3333" gradientUnits="userSpaceOnUse">
            <stop stop-color="#fff" />
            <stop offset=".421421" stop-color="#ECF1EB" />
            <stop offset=".827347" stop-color="#B2CFAF" />
            <stop offset="1" stop-color="#AEEBAA" />
        </linearGradient>
    </defs>
</svg>

<style>
    :root {
        --dur: 4s;
    }

    #line {
        animation: anim var(--dur) ease-in-out alternate infinite;
    }

    @keyframes anim {
        from {
            transform: translateX(-35%);
        }

        to {
            transform: translateX(95%);
        }
    }

    #wrap {
        transform-origin: 50% 50%;
        animation: rot var(--dur) linear infinite;
    }

    @keyframes rot {
        to {
            transform: rotate(360deg);
        }
    }
</style>


<svg width="50" height="50" viewBox="0 0 50 50" fill="none" xmlns="http://www.w3.org/2000/svg">
    <mask id="mask0_134_521" style="mask-type:alpha" maskUnits="userSpaceOnUse" x="0" y="0" width="50" height="50">
        <path
            d="M25 50C38.8071 50 50 38.8071 50 25C50 11.1929 38.8071 0 25 0C11.1929 0 0 11.1929 0 25C0 38.8071 11.1929 50 25 50Z"
            fill="white" />
    </mask>
    <g mask="url(#mask0_134_521)">
        <path
            d="M25 50C38.8071 50 50 38.8071 50 25C50 11.1929 38.8071 0 25 0C11.1929 0 0 11.1929 0 25C0 38.8071 11.1929 50 25 50Z"
            fill="url(#paint0_linear_134_521)"
        />
        <mask id="mask1_134_521" style="mask-type:alpha" maskUnits="userSpaceOnUse" x="0" y="0" width="50" height="50">
            <g id="wrap" width="50" height="50">
                <path
                    id="line"
                    d="M-20.0005 22.5745C-20.0005 9.64684 -13.2847 5 -5.00049 5C3.28371 5 9.99951 9.64684 9.99951 22.5745M39.9995 22.5745C39.9995 9.64684 46.7153 5 54.9995 5C63.2837 5 69.9995 9.64684 69.9995 22.5745M39.9995 22.4254C39.9995 35.3532 33.2837 40 24.9995 40C16.7153 40 9.99951 35.3532 9.99951 22.4254M-20.0005 22.4254C-20.0005 35.3532 -26.7163 40 -35.0005 40C-43.2848 40 -50.0005 35.3532 -50.0005 22.4254"
                    stroke="white" stroke-width="4" />
            </g>
        </mask>
        <g mask="url(#mask1_134_521)">
            <rect width="50" height="50" fill="url(#paint1_linear_134_521)" />
        </g>
        <g style="mix-blend-mode:overlay" opacity="0.3">
            <rect width="50" height="50" transform="matrix(1 0 0 -1 0 50)" fill="#111111" />
        </g>
    </g>
    <defs>
        <linearGradient id="paint0_linear_134_521" x1="24.9966" y1="1.1375" x2="24.9966" y2="46"
            gradientUnits="userSpaceOnUse">
            <stop stop-color="#74FF66" />
            <stop offset="1" stop-color="#14C700" />
        </linearGradient>
        <linearGradient id="paint1_linear_134_521" x1="25" y1="-8.33333" x2="25" y2="58.3333"
            gradientUnits="userSpaceOnUse">
            <stop stop-color="white" />
            <stop offset="0.421421" stop-color="#ECF1EB" />
            <stop offset="0.827347" stop-color="#B2CFAF" />
            <stop offset="1" stop-color="#AEEBAA" />
        </linearGradient>
    </defs>
</svg>
